actions/22x22-light/zoom-in-x.svg

<svg viewBox="0 0 22 22" xmlns="http://www.w3.org/2000/svg"><path d="m7.53125 3-4.0644531.0136719c-.1292.00042-.2455781.0520187-.3300781.1367187-.0844.08472-.1370988.2011681-.1367188.3300782l.0136719 4.0546874c.00082.25786.21029.4657238.46875.4648438.25842-.00082.4675668-.21094.4667969-.46875l-.0117188-3.5859375 3.5957031-.0117187c.25841-.0008101.4676269-.2110001.4667969-.46875-.0007-.2578701-.21017-.4657338-.46875-.4648438zm6.414062 0v2.8574219l-7.945312 2.1425781 7.945312 2.142578v2.857422l5.054688-5zm-10.3457026 10c-.3324 0-.5996094.267209-.5996094.599609v4.800782c0 .3324.2672094.599609.5996094.599609h4.8007812c.3324 0 .5996094-.267209.5996094-.599609v-4.800782c0-.3324-.2672094-.599609-.5996094-.599609zm14.9179686 1c-.25842.00082-.467567.21095-.466797.46875l.011719 3.585938-3.595703.011718c-.25841.00081-.467627.211-.466797.46875.00069.25787.21017.465734.46875.464844l4.064453-.013672c.12919-.00042.245578-.052019.330078-.136719.0843-.08472.137099-.201168.136719-.330078l-.013672-4.054687c-.00083-.25786-.21029-.465724-.46875-.464844z" fill="#4d4d4d"/></svg>

<svg xmlns="http://www.w3.org/2000/svg" viewBox="0 0 22 22">
  <defs id="defs3051">
    <style type="text/css" id="current-color-scheme">
      .ColorScheme-Text {
        color:#4d4d4d
      }
      </style>
  </defs>
    <path
       style="fill:currentColor;fill-opacity:1;stroke:none"
       class="ColorScheme-Text"
       d="M 7.53125 3 L 3.4667969 3.0136719 C 3.3375969 3.0140919 3.2212188 3.0656906 3.1367188 3.1503906 C 3.0523188 3.2351106 2.99962 3.3515587 3 3.4804688 L 3.0136719 7.5351562 C 3.0144919 7.7930162 3.2239619 8.00088 3.4824219 8 C 3.7408419 7.99918 3.9499887 7.78906 3.9492188 7.53125 L 3.9375 3.9453125 L 7.5332031 3.9335938 C 7.7916131 3.9327837 8.00083 3.7225937 8 3.4648438 C 7.9993 3.2069737 7.78983 2.99911 7.53125 3 z M 13.945312 3 L 13.945312 5.8574219 L 6 8 L 13.945312 10.142578 L 13.945312 13 L 19 8 L 13.945312 3 z M 3.5996094 13 C 3.2672094 13 3 13.267209 3 13.599609 L 3 18.400391 C 3 18.732791 3.2672094 19 3.5996094 19 L 8.4003906 19 C 8.7327906 19 9 18.732791 9 18.400391 L 9 13.599609 C 9 13.267209 8.7327906 13 8.4003906 13 L 3.5996094 13 z M 18.517578 14 C 18.259158 14.00082 18.050011 14.21095 18.050781 14.46875 L 18.0625 18.054688 L 14.466797 18.066406 C 14.208387 18.067216 13.99917 18.277406 14 18.535156 C 14.00069 18.793026 14.21017 19.00089 14.46875 19 L 18.533203 18.986328 C 18.662393 18.985908 18.778781 18.934309 18.863281 18.849609 C 18.947581 18.764889 19.00038 18.648441 19 18.519531 L 18.986328 14.464844 C 18.985498 14.206984 18.776038 13.99912 18.517578 14 z "
        />
</svg>
